icons/chat-voice-line.svg

<svg xmlns="http://www.w3.org/2000/svg" width="24" height="24" fill="none"><g clip-path="url(#a)"><g><path fill="#121212" d="M1.99999 12C1.99999 6.477 6.47699 2 12 2C17.523 2 22 6.477 22 12C22 17.523 17.523 22 12 22H1.99999L4.92899 19.071C3.99903 18.1434 3.26153 17.0413 2.75887 15.8278C2.25622 14.6143 1.99832 13.3135 1.99999 12ZM6.82799 20H12C13.5822 20 15.129 19.5308 16.4446 18.6518C17.7601 17.7727 18.7855 16.5233 19.391 15.0615C19.9965 13.5997 20.155 11.9911 19.8463 10.4393C19.5376 8.88743 18.7757 7.46197 17.6568 6.34315C16.538 5.22433 15.1126 4.4624 13.5607 4.15372C12.0089 3.84504 10.4003 4.00346 8.93853 4.60896C7.47672 5.21447 6.22729 6.23984 5.34824 7.55544C4.46918 8.87103 3.99999 10.4177 3.99999 12C3.99999 14.152 4.85099 16.165 6.34299 17.657L7.75699 19.071L6.82799 20ZM11 6H13V18H11V6ZM6.99999 9H8.99999V15H6.99999V9ZM15 9H17V15H15V9Z"/></g></g><defs><clipPath id="a"><rect width="24" height="24" fill="white"/></clipPath></defs></svg>

<svg width="24" height="24" fill="none" xmlns="http://www.w3.org/2000/svg"><g clip-path="url(#a)"><path d="M2 12C2 6.477 6.477 2 12 2s10 4.477 10 10-4.477 10-10 10H2l2.929-2.929A9.97 9.97 0 0 1 2 12Zm4.828 8H12a8 8 0 1 0-5.657-2.343l1.414 1.414-.929.929ZM11 6h2v12h-2V6ZM7 9h2v6H7V9Zm8 0h2v6h-2V9Z" /></g><defs><clipPath id="a"><path fill="#fff" d="M0 0h24v24H0z"/></clipPath></defs></svg>
